X:2
T:Ballydesmond No. 1
Z: id:dc-polka-1
M:2/4
L:1/8
K:A Dorian
EA AB|cd e2|G>F GA|GE ED|!
EA AB|cd e>f|ge dB|A2 A2:|!
a>g ab|ag ef|g>f ga|ge ed|!
ea ab|ag ef|ge dB|A2 A2:|!

